svg/drag_variant.svg

<svg xmlns="http://www.w3.org/2000/svg" viewBox="0 0 24 24"><path d="m22.67 12-4.49 4.5-2.51-2.5 1.98-2-1.98-1.96 2.51-2.51zM12 1.33l4.47 4.49-2.51 2.51L12 6.35l-2 1.98-2.5-2.51zm0 21.34-4.47-4.49 2.51-2.51L12 17.65l2-1.98 2.5 2.51zM1.33 12l4.49-4.5L8.33 10l-1.98 2 1.98 1.96-2.51 2.51zM12 10a2 2 0 0 1 2 2 2 2 0 0 1-2 2 2 2 0 0 1-2-2 2 2 0 0 1 2-2"/></svg>

<?xml version="1.0" encoding="UTF-8"?><!DOCTYPE svg PUBLIC "-//W3C//DTD SVG 1.1//EN" "http://www.w3.org/Graphics/SVG/1.1/DTD/svg11.dtd"><svg xmlns="http://www.w3.org/2000/svg" xmlns:xlink="http://www.w3.org/1999/xlink" version="1.1" id="mdi-drag-variant" width="24" height="24" viewBox="0 0 24 24"><path d="M22.67,12L18.18,16.5L15.67,14L17.65,12L15.67,10.04L18.18,7.53L22.67,12M12,1.33L16.47,5.82L13.96,8.33L12,6.35L10,8.33L7.5,5.82L12,1.33M12,22.67L7.53,18.18L10.04,15.67L12,17.65L14,15.67L16.5,18.18L12,22.67M1.33,12L5.82,7.5L8.33,10L6.35,12L8.33,13.96L5.82,16.47L1.33,12M12,10A2,2 0 0,1 14,12A2,2 0 0,1 12,14A2,2 0 0,1 10,12A2,2 0 0,1 12,10Z" /></svg>
